docs/img/svg/watches.svg

<svg xmlns="http://www.w3.org/2000/svg" preserveAspectRatio="xMidYMid" width="18.031" height="11" viewBox="0 0 18.031 11"><defs><style>.cls-1{fill:#818181;fill-rule:evenodd}</style></defs><path d="M17.729 6.443s-3.504 4.562-8.719 4.562S.29 6.443.29 6.443c-.398-.518-.398-1.365 0-1.883 0 0 3.505-4.563 8.72-4.563 5.215 0 8.719 4.563 8.719 4.563.398.518.398 1.365 0 1.883zm-.902-1.128c-.03-.039-3.24-4.111-7.817-4.111S1.222 5.276 1.191 5.317c-.058.074-.058.294.001.371.03.039 3.241 4.11 7.818 4.11 4.607 0 7.786-4.069 7.817-4.11.059-.077.059-.297 0-.373zM9.01 8.993c-1.848 0-3.346-1.563-3.346-3.492 0-1.928 1.498-3.492 3.346-3.492 1.847 0 3.345 1.564 3.345 3.492 0 1.929-1.498 3.492-3.345 3.492zm0-5.777c-.08 0-.159.005-.236.014.25.239.409.58.409.962 0 .723-.562 1.309-1.255 1.309-.43 0-.809-.226-1.035-.571a2.338 2.338 0 0 0-.072.571c0 1.26.982 2.285 2.189 2.285s2.189-1.025 2.189-2.285c0-1.26-.982-2.285-2.189-2.285z" class="cls-1"/></svg>

<svg xmlns="http://www.w3.org/2000/svg" xmlns:xlink="http://www.w3.org/1999/xlink" preserveAspectRatio="xMidYMid" width="18.031" height="11" viewBox="0 0 18.031 11">
  <defs>
    <style>
      .cls-1 {
        fill: #818181;
        fill-rule: evenodd;
      }
    </style>
  </defs>
  <path d="M17.729,6.443 C17.729,6.443 14.225,11.005 9.010,11.005 C3.795,11.005 0.290,6.443 0.290,6.443 C-0.108,5.925 -0.108,5.078 0.290,4.560 C0.290,4.560 3.795,-0.003 9.010,-0.003 C14.225,-0.003 17.729,4.560 17.729,4.560 C18.127,5.078 18.127,5.925 17.729,6.443 ZM16.827,5.315 C16.797,5.276 13.587,1.204 9.010,1.204 C4.433,1.204 1.222,5.276 1.191,5.317 C1.133,5.391 1.133,5.611 1.192,5.688 C1.222,5.727 4.433,9.798 9.010,9.798 C13.617,9.798 16.796,5.729 16.827,5.688 C16.886,5.611 16.886,5.391 16.827,5.315 ZM9.010,8.993 C7.162,8.993 5.664,7.430 5.664,5.501 C5.664,3.573 7.162,2.009 9.010,2.009 C10.857,2.009 12.355,3.573 12.355,5.501 C12.355,7.430 10.857,8.993 9.010,8.993 ZM9.010,3.216 C8.930,3.216 8.851,3.221 8.774,3.230 C9.024,3.469 9.183,3.810 9.183,4.192 C9.183,4.915 8.621,5.501 7.928,5.501 C7.498,5.501 7.119,5.275 6.893,4.930 C6.847,5.113 6.821,5.304 6.821,5.501 C6.821,6.761 7.803,7.786 9.010,7.786 C10.217,7.786 11.199,6.761 11.199,5.501 C11.199,4.241 10.217,3.216 9.010,3.216 Z" class="cls-1"/>
</svg>
